X:1
T:Tafelmusik (Trio theme)
C:Georg Philipp Telemann
M:4/4
L:1/8
Q:1/4=100
K:G
G2 AB cBAG | A2 Bc dcBA | B4 c2 d2 | c2 BA G4 |
d2 cB A2 GA | B2 AB c4 | A2 GA B2 cB | G8 |]
